img/cases_decor-3.svg

<svg width="143" height="141" viewBox="0 0 143 141" fill="none" xmlns="http://www.w3.org/2000/svg">
<g clip-path="url(#clip0)">
<path d="M107.296 101.465C107.296 101.465 96.1416 105.434 88.6785 106.156C78.2387 107.165 70.8392 103.103 60.3856 103.957C49.2473 104.867 34.5847 111.287 34.5847 111.287C34.5847 111.287 36.5894 108.586 38.4623 107.104C41.2823 104.871 41.5156 104.649 44.1134 103.077C49.0355 100.099 54.6512 98.6004 60.3856 98.2408M128.48 60.143C129.995 59.6658 132.32 58.8766 133.39 58.2188C142.659 52.5195 140.793 40.9009 150.689 36.3761C157.6 33.2159 171.826 36.3758 171.826 36.3758C171.826 36.3758 162.179 36.311 153.144 39.7757C142.262 43.9485 141.335 56.9597 135.443 67.0146C132.018 72.8591 127.352 80.9425 124.672 85.5951" stroke="#33386F"/>
<path d="M51.3508 8.27657C51.3508 8.27657 51.3508 4.1726 54.1361 2.85251C59.6457 0.241278 60.6805 4.73434 72.0255 8.81056" stroke="#33386F"/>
<path d="M36.5444 57.0931C36.5444 57.0931 36.5949 56.5604 36.5444 55.1873C36.228 46.582 32 51.9622 32 35.1037C32 31.0229 33.9217 27.2782 35.5183 23.5227C36.6106 20.9535 36.5074 19.8103 38.4502 17.8054C40.693 15.4911 43.8908 16.8938 46.5129 15.0201C49.0854 13.1819 47.6046 8.245 50.7642 8.13011C66.8898 7.54372 67.6558 11.1376 67.6558 11.1376" stroke="#33386F"/>
<path d="M60.4396 19.7108C60.4396 19.7108 58.7489 19.8328 57.8009 20.2972C55.6319 21.3598 54.7219 25.1201 54.7219 25.1201" stroke="#33386F"/>
<path d="M88.879 10.4753C88.879 10.4753 84.1248 6.38647 78.6173 7.10363C71.4299 8.03952 63.4235 11.9547 60.7326 18.6847C58.8409 23.4157 60.1462 30.9987 60.1462 30.9987H57.2143M56.1199 71.6126C51.3122 62.6704 51.8714 59.0641 50.3243 49.03C49.0153 40.5403 49.0193 27.8315 49.4222 20.4011" stroke="#33386F"/>
<path d="M107.79 97.922C101.361 97.2232 90.1822 95.9362 84.7584 94.8838C81.6368 94.2781 77.4263 92.3775 74.6596 90.8102C66.5476 86.2146 64.607 79.4443 57.8011 73.0721C48.933 64.7692 45.1939 62.0774 32.8798 54.4545C30.7609 53.1427 37.4479 71.3294 43.4347 80.5485C48.9934 89.1084 55.663 96.9137 65.2775 100.339C85.9003 107.686 103.123 102.793 106.982 101.505" stroke="#33386F"/>
<path d="M90.2029 19.3522C90.2029 19.3522 87.1318 16.6457 87.12 13.9936C87.1121 12.218 88.2227 11.4432 88.7326 9.74235C89.6325 6.74023 88.027 5.99582 89.6121 3.29213C94.0407 -4.26152 106.813 8.74559 112.921 15.0198C117.118 19.331 118.632 25.7229 119.138 28.7905" stroke="#33386F"/>
<path d="M124.062 83.627C124.062 83.627 131.155 65.5496 127.58 51.8157C126.513 47.7153 124.062 41.7006 120.837 35.9833C119.397 30.753 119.957 28.0226 116.439 26.4546C111.001 24.0309 108.817 26.7475 102.952 25.7216C94.4721 24.2382 90.1879 15.4932 82.1356 18.5384C75.1651 21.1745 73.364 26.5248 71.1409 33.6378C68.4255 42.326 70.2573 47.8869 71.1409 56.9465C72.1752 67.5521 70.0394 75.4384 76.8581 83.627C82.8546 90.828 89.2899 92.0186 98.4077 94.1818C101.641 94.949 106.265 95.3618 108.73 95.5395" stroke="#33386F"/>
<path d="M145.318 134.884C145.318 134.884 147.458 136.778 136.376 124.966C126.203 114.123 120.104 105.762 107.35 101.951C105.007 101.251 108.742 97.7987 108.816 95.3541C108.897 92.694 107.73 92.1244 107.35 89.4903C107.056 87.4504 108.04 86.0083 107.35 84.0663C106.387 81.3555 101.193 78.6422 101.193 78.6422C101.193 78.6422 106.595 80.2814 110.135 80.9877C115.108 81.9797 122.062 79.4729 124.209 84.0663C125.275 86.3483 123.256 87.7139 123.476 90.2233C123.856 94.5667 123.323 96.256 126.114 99.6054C131.978 106.642 138.334 112.865 145.318 122.181C153.017 132.45 151.377 129.465 151.377 129.465L145.318 134.884Z" stroke="#33386F"/>
<path d="M48.419 16.7787C48.8237 15.6223 50.3248 14.2866 50.3248 14.2866L57.2148 30.9985C57.2148 30.9985 47.3929 19.7106 48.419 16.7787Z" stroke="#33386F"/>
</g>
<defs>
<clipPath id="clip0">
<rect width="143" height="141" fill="white"/>
</clipPath>
</defs>
</svg>

<svg width="143" height="141" fill="none" xmlns="http://www.w3.org/2000/svg"><g clip-path="url(#clip0)" stroke="#33386F"><path d="M107.296 101.465s-11.154 3.969-18.618 4.691c-10.44 1.009-17.839-3.053-28.292-2.199-11.139.91-25.801 7.33-25.801 7.33s2.004-2.701 3.877-4.183c2.82-2.233 3.054-2.455 5.651-4.027 4.922-2.978 10.538-4.477 16.273-4.836m68.094-38.098c1.515-.477 3.84-1.266 4.91-1.924 9.269-5.7 7.403-17.318 17.299-21.843 6.911-3.16 21.137 0 21.137 0s-9.647-.065-18.682 3.4c-10.882 4.172-11.809 17.184-17.701 27.239a3279.289 3279.289 0 00-10.771 18.58M51.35 8.277s0-4.104 2.786-5.424C59.646.24 60.68 4.734 72.026 8.81"/><path d="M36.544 57.093s.05-.533 0-1.906C36.228 46.582 32 51.962 32 35.104c0-4.081 1.922-7.826 3.518-11.581 1.093-2.57.99-3.713 2.932-5.718 2.243-2.314 5.44-.911 8.063-2.785 2.572-1.838 1.092-6.775 4.251-6.89 16.126-.586 16.892 3.008 16.892 3.008"/><path d="M60.44 19.71s-1.691.123-2.64.587c-2.168 1.063-3.078 4.823-3.078 4.823"/><path d="M88.879 10.475s-4.754-4.089-10.262-3.371c-7.187.936-15.194 4.85-17.884 11.58C58.84 23.417 60.146 31 60.146 31h-2.932M56.12 71.613c-4.808-8.943-4.249-12.549-5.796-22.583-1.309-8.49-1.305-21.199-.902-28.629"/><path d="M107.79 97.922c-6.429-.699-17.608-1.986-23.032-3.038-3.121-.606-7.332-2.507-10.098-4.074-8.112-4.595-10.053-11.366-16.859-17.738-8.868-8.303-12.607-10.995-24.921-18.617-2.12-1.312 4.568 16.874 10.555 26.094 5.558 8.56 12.228 16.365 21.843 19.79 20.622 7.347 37.845 2.454 41.704 1.166M90.203 19.352s-3.071-2.706-3.083-5.358c-.008-1.776 1.103-2.55 1.613-4.252.9-3.002-.706-3.746.88-6.45 4.428-7.554 17.2 5.454 23.308 11.728 4.197 4.311 5.711 10.703 6.217 13.77"/><path d="M124.062 83.627s7.093-18.077 3.518-31.811c-1.067-4.1-3.518-10.115-6.743-15.833-1.44-5.23-.88-7.96-4.398-9.528-5.438-2.424-7.622.293-13.487-.733-8.48-1.484-12.764-10.229-20.816-7.184-6.97 2.636-8.772 7.987-10.995 15.1-2.716 8.688-.884 14.249 0 23.309 1.034 10.605-1.102 18.491 5.717 26.68 5.997 7.201 12.432 8.392 21.55 10.555 3.233.767 7.857 1.18 10.322 1.358"/><path d="M145.318 134.884s2.14 1.894-8.942-9.918c-10.173-10.843-16.272-19.204-29.026-23.015-2.343-.7 1.392-4.152 1.466-6.597.081-2.66-1.086-3.23-1.466-5.864-.294-2.04.69-3.482 0-5.424-.963-2.71-6.157-5.424-6.157-5.424s5.402 1.64 8.942 2.346c4.973.992 11.927-1.515 14.074 3.078 1.066 2.282-.953 3.648-.733 6.157.38 4.344-.153 6.033 2.638 9.382 5.864 7.037 12.22 13.26 19.204 22.576 7.699 10.269 6.059 7.284 6.059 7.284l-6.059 5.419zM48.419 16.779c.405-1.157 1.906-2.492 1.906-2.492l6.89 16.712s-9.822-11.288-8.796-14.22z"/></g><defs><clipPath id="clip0"><path fill="#fff" d="M0 0h143v141H0z"/></clipPath></defs></svg>
